src/assets/filled/EmojiNormal.svg

<?xml version="1.0" encoding="UTF-8"?>
<svg width="24" height="24" viewBox="0 0 24 24" xmlns="http://www.w3.org/2000/svg">
 <path d="m16.19 2h-8.38c-3.64 0-5.81 2.17-5.81 5.81v8.37c0 3.65 2.17 5.82 5.81 5.82h8.37c3.64 0 5.81-2.17 5.81-5.81v-8.38c0.01-3.64-2.16-5.81-5.8-5.81zm-9.72 5.72c0.29-0.29 0.77-0.29 1.06 0 0.71 0.71 1.87 0.71 2.58 0 0.29-0.29 0.77-0.29 1.06 0s0.29 0.77 0 1.06c-0.65 0.65-1.5 0.97-2.35 0.97s-1.7-0.32-2.35-0.97c-0.29-0.3-0.29-0.77 0-1.06zm5.53 11.06c-2.69 0-4.88-2.19-4.88-4.88 0-0.7 0.57-1.28 1.27-1.28h7.2c0.7 0 1.27 0.57 1.27 1.28 0.02 2.69-2.17 4.88-4.86 4.88zm5.53-10c-0.65 0.65-1.5 0.97-2.35 0.97s-1.7-0.32-2.35-0.97c-0.29-0.29-0.29-0.77 0-1.06s0.77-0.29 1.06 0c0.71 0.71 1.87 0.71 2.58 0 0.29-0.29 0.77-0.29 1.06 0s0.29 0.76 0 1.06z"/>
</svg>

<svg width="24" height="24" viewBox="0 0 24 24"  xmlns="http://www.w3.org/2000/svg">
<path d="M16.19 2H7.81C4.17 2 2 4.17 2 7.81V16.18C2 19.83 4.17 22 7.81 22H16.18C19.82 22 21.99 19.83 21.99 16.19V7.81C22 4.17 19.83 2 16.19 2ZM6.47 7.72C6.76 7.43 7.24 7.43 7.53 7.72C8.24 8.43 9.4 8.43 10.11 7.72C10.4 7.43 10.88 7.43 11.17 7.72C11.46 8.01 11.46 8.49 11.17 8.78C10.52 9.43 9.67 9.75 8.82 9.75C7.97 9.75 7.12 9.43 6.47 8.78C6.18 8.48 6.18 8.01 6.47 7.72ZM12 18.78C9.31 18.78 7.12 16.59 7.12 13.9C7.12 13.2 7.69 12.62 8.39 12.62H15.59C16.29 12.62 16.86 13.19 16.86 13.9C16.88 16.59 14.69 18.78 12 18.78ZM17.53 8.78C16.88 9.43 16.03 9.75 15.18 9.75C14.33 9.75 13.48 9.43 12.83 8.78C12.54 8.49 12.54 8.01 12.83 7.72C13.12 7.43 13.6 7.43 13.89 7.72C14.6 8.43 15.76 8.43 16.47 7.72C16.76 7.43 17.24 7.43 17.53 7.72C17.82 8.01 17.82 8.48 17.53 8.78Z" />
</svg>
